docs/assets/images/360/_DSC2966.xmp
<x:xmpmeta xmlns:x="adobe:ns:meta/" x:xmptk="Adobe XMP Core 5.6-c140 79.160451, 2017/05/06-01:08:21        ">
 <rdf:RDF xmlns:rdf="http://www.w3.org/1999/02/22-rdf-syntax-ns#">
  <rdf:Description rdf:about=""
    xmlns:tiff="http://ns.adobe.com/tiff/1.0/"
    xmlns:exif="http://ns.adobe.com/exif/1.0/"
    xmlns:xmp="http://ns.adobe.com/xap/1.0/"
    xmlns:aux="http://ns.adobe.com/exif/1.0/aux/"
    xmlns:photoshop="http://ns.adobe.com/photoshop/1.0/"
    xmlns:xmpMM="http://ns.adobe.com/xap/1.0/mm/"
    xmlns:stEvt="http://ns.adobe.com/xap/1.0/sType/ResourceEvent#"
    xmlns:dc="http://purl.org/dc/elements/1.1/"
    xmlns:crd="http://ns.adobe.com/camera-raw-defaults/1.0/"
    xmlns:crs="http://ns.adobe.com/camera-raw-settings/1.0/"
   tiff:Make="NIKON CORPORATION"
   tiff:Model="NIKON D3200"
   tiff:Orientation="1"
   exif:ExifVersion="0231"
   exif:ExposureTime="1/25"
   exif:ShutterSpeedValue="4643856/1000000"
   exif:FNumber="4/1"
   exif:ApertureValue="4/1"
   exif:ExposureProgram="1"
   exif:SensitivityType="2"
   exif:ExposureBiasValue="0/6"
   exif:MaxApertureValue="16/10"
   exif:MeteringMode="5"
   exif:LightSource="3"
   exif:FocalLength="500/10"
   exif:SensingMethod="2"
   exif:FileSource="3"
   exif:SceneType="1"
   exif:FocalLengthIn35mmFilm="75"
   exif:CustomRendered="0"
   exif:ExposureMode="1"
   exif:WhiteBalance="1"
   exif:SceneCaptureType="0"
   exif:GainControl="0"
   exif:Contrast="0"
   exif:Saturation="0"
   exif:Sharpness="0"
   exif:SubjectDistanceRange="0"
   exif:DigitalZoomRatio="1/1"
   exif:FocalPlaneXResolution="85041222/32768"
   exif:FocalPlaneYResolution="85041222/32768"
   exif:FocalPlaneResolutionUnit="3"
   exif:DateTimeOriginal="2020-11-11T18:05:08.50"
   xmp:CreatorTool="Ver.1.03"
   xmp:ModifyDate="2020-11-11T18:05:08.50"
   xmp:CreateDate="2020-11-11T18:05:08.50"
   xmp:MetadataDate="2020-11-11T19:32:42-05:00"
   aux:SerialNumber="3802340"
   aux:LensInfo="500/10 500/10 18/10 18/10"
   aux:Lens="50.0 mm f/1.8"
   aux:LensID="176"
   aux:ImageNumber="31482"
   aux:ApproximateFocusDistance="200/100"
   photoshop:DateCreated="2020-11-11T18:05:08.50"
   photoshop:SidecarForExtension="NEF"
   photoshop:EmbeddedXMPDigest="2AD1AC5BA3E424E6C7C1B8C3F9C2974A"
   xmpMM:DocumentID="926C944A9AC982459437481851A4391B"
   xmpMM:OriginalDocumentID="926C944A9AC982459437481851A4391B"
   xmpMM:InstanceID="xmp.iid:ec0456fb-6e25-6341-a092-544cab61dd9c"
   dc:format="image/x-nikon-nef"
   crd:CameraProfile="Camera NEUTRAL"
   crd:LookName=""
   crs:Version="13.0.2"
   crs:ProcessVersion="11.0"
   crs:WhiteBalance="As Shot"
   crs:Temperature="2950"
   crs:Tint="+2"
   crs:Exposure2012="+1.00"
   crs:Contrast2012="+23"
   crs:Highlights2012="-21"
   crs:Shadows2012="0"
   crs:Whites2012="0"
   crs:Blacks2012="0"
   crs:Texture="0"
   crs:Clarity2012="0"
   crs:Dehaze="-26"
   crs:Vibrance="0"
   crs:Saturation="0"
   crs:ParametricShadows="+10"
   crs:ParametricDarks="0"
   crs:ParametricLights="-76"
   crs:ParametricHighlights="-13"
   crs:ParametricShadowSplit="25"
   crs:ParametricMidtoneSplit="50"
   crs:ParametricHighlightSplit="75"
   crs:Sharpness="40"
   crs:SharpenRadius="+1.0"
   crs:SharpenDetail="25"
   crs:SharpenEdgeMasking="0"
   crs:LuminanceSmoothing="0"
   crs:ColorNoiseReduction="25"
   crs:ColorNoiseReductionDetail="50"
   crs:ColorNoiseReductionSmoothness="50"
   crs:HueAdjustmentRed="0"
   crs:HueAdjustmentOrange="0"
   crs:HueAdjustmentYellow="0"
   crs:HueAdjustmentGreen="0"
   crs:HueAdjustmentAqua="0"
   crs:HueAdjustmentBlue="0"
   crs:HueAdjustmentPurple="0"
   crs:HueAdjustmentMagenta="0"
   crs:SaturationAdjustmentRed="0"
   crs:SaturationAdjustmentOrange="0"
   crs:SaturationAdjustmentYellow="0"
   crs:SaturationAdjustmentGreen="0"
   crs:SaturationAdjustmentAqua="0"
   crs:SaturationAdjustmentBlue="0"
   crs:SaturationAdjustmentPurple="0"
   crs:SaturationAdjustmentMagenta="0"
   crs:LuminanceAdjustmentRed="0"
   crs:LuminanceAdjustmentOrange="0"
   crs:LuminanceAdjustmentYellow="0"
   crs:LuminanceAdjustmentGreen="0"
   crs:LuminanceAdjustmentAqua="0"
   crs:LuminanceAdjustmentBlue="0"
   crs:LuminanceAdjustmentPurple="0"
   crs:LuminanceAdjustmentMagenta="0"
   crs:SplitToningShadowHue="0"
   crs:SplitToningShadowSaturation="0"
   crs:SplitToningHighlightHue="0"
   crs:SplitToningHighlightSaturation="0"
   crs:SplitToningBalance="0"
   crs:ColorGradeMidtoneHue="0"
   crs:ColorGradeMidtoneSat="0"
   crs:ColorGradeShadowLum="0"
   crs:ColorGradeMidtoneLum="0"
   crs:ColorGradeHighlightLum="0"
   crs:ColorGradeBlending="50"
   crs:ColorGradeGlobalHue="0"
   crs:ColorGradeGlobalSat="0"
   crs:ColorGradeGlobalLum="0"
   crs:AutoLateralCA="0"
   crs:LensProfileEnable="0"
   crs:LensManualDistortionAmount="0"
   crs:VignetteAmount="0"
   crs:DefringePurpleAmount="0"
   crs:DefringePurpleHueLo="30"
   crs:DefringePurpleHueHi="70"
   crs:DefringeGreenAmount="0"
   crs:DefringeGreenHueLo="40"
   crs:DefringeGreenHueHi="60"
   crs:PerspectiveUpright="0"
   crs:PerspectiveVertical="0"
   crs:PerspectiveHorizontal="0"
   crs:PerspectiveRotate="0.0"
   crs:PerspectiveAspect="0"
   crs:PerspectiveScale="100"
   crs:PerspectiveX="0.00"
   crs:PerspectiveY="0.00"
   crs:GrainAmount="0"
   crs:PostCropVignetteAmount="0"
   crs:ShadowTint="0"
   crs:RedHue="0"
   crs:RedSaturation="0"
   crs:GreenHue="0"
   crs:GreenSaturation="0"
   crs:BlueHue="0"
   crs:BlueSaturation="0"
   crs:OverrideLookVignette="False"
   crs:ToneCurveName2012="Linear"
   crs:CameraProfile="Adobe Standard"
   crs:CameraProfileDigest="377C9A9815F71A5162B36378471B1DDE"
   crs:HasSettings="True"
   crs:CropTop="0"
   crs:CropLeft="0.102867"
   crs:CropBottom="1"
   crs:CropRight="0.767761"
   crs:CropAngle="0"
   crs:CropConstrainToWarp="0"
   crs:CropWidth="1"
   crs:CropHeight="1"
   crs:CropUnit="3"
   crs:HasCrop="True"
   crs:AlreadyApplied="False">
   <exif:ISOSpeedRatings>
    <rdf:Seq>
     <rdf:li>200</rdf:li>
    </rdf:Seq>
   </exif:ISOSpeedRatings>
   <exif:Flash
    exif:Fired="False"
    exif:Return="0"
    exif:Mode="0"
    exif:Function="False"
    exif:RedEyeMode="False"/>
   <xmpMM:History>
    <rdf:Seq>
     <rdf:li
      stEvt:action="saved"
      stEvt:instanceID="xmp.iid:ec0456fb-6e25-6341-a092-544cab61dd9c"
      stEvt:when="2020-11-11T19:32:42-05:00"
      stEvt:softwareAgent="Adobe Photoshop Camera Raw 13.0.2 (Windows)"
      stEvt:changed="/metadata"/>
    </rdf:Seq>
   </xmpMM:History>
   <crs:ToneCurvePV2012>
    <rdf:Seq>
     <rdf:li>0, 0</rdf:li>
     <rdf:li>255, 255</rdf:li>
    </rdf:Seq>
   </crs:ToneCurvePV2012>
   <crs:ToneCurvePV2012Red>
    <rdf:Seq>
     <rdf:li>0, 0</rdf:li>
     <rdf:li>255, 255</rdf:li>
    </rdf:Seq>
   </crs:ToneCurvePV2012Red>
   <crs:ToneCurvePV2012Green>
    <rdf:Seq>
     <rdf:li>0, 0</rdf:li>
     <rdf:li>255, 255</rdf:li>
    </rdf:Seq>
   </crs:ToneCurvePV2012Green>
   <crs:ToneCurvePV2012Blue>
    <rdf:Seq>
     <rdf:li>0, 0</rdf:li>
     <rdf:li>255, 255</rdf:li>
    </rdf:Seq>
   </crs:ToneCurvePV2012Blue>
   <crs:Look>
    <rdf:Description
     crs:Name="Adobe Color"
     crs:Amount="1.000000"
     crs:UUID="B952C231111CD8E0ECCF14B86BAA7077"
     crs:SupportsAmount="false"
     crs:SupportsMonochrome="false"
     crs:SupportsOutputReferred="false"
     crs:Copyright="© 2018 Adobe Systems, Inc.">
    <crs:Group>
     <rdf:Alt>
      <rdf:li xml:lang="x-default">Profiles</rdf:li>
     </rdf:Alt>
    </crs:Group>
    <crs:Parameters>
     <rdf:Description
      crs:Version="13.0.2"
      crs:ProcessVersion="11.0"
      crs:ConvertToGrayscale="False"
      crs:CameraProfile="Adobe Standard"
      crs:LookTable="E1095149FDB39D7A057BAB208837E2E1">
     <crs:ToneCurvePV2012>
      <rdf:Seq>
       <rdf:li>0, 0</rdf:li>
       <rdf:li>22, 16</rdf:li>
       <rdf:li>40, 35</rdf:li>
       <rdf:li>127, 127</rdf:li>
       <rdf:li>224, 230</rdf:li>
       <rdf:li>240, 246</rdf:li>
       <rdf:li>255, 255</rdf:li>
      </rdf:Seq>
     </crs:ToneCurvePV2012>
     <crs:ToneCurvePV2012Red>
      <rdf:Seq>
       <rdf:li>0, 0</rdf:li>
       <rdf:li>255, 255</rdf:li>
      </rdf:Seq>
     </crs:ToneCurvePV2012Red>
     <crs:ToneCurvePV2012Green>
      <rdf:Seq>
       <rdf:li>0, 0</rdf:li>
       <rdf:li>255, 255</rdf:li>
      </rdf:Seq>
     </crs:ToneCurvePV2012Green>
     <crs:ToneCurvePV2012Blue>
      <rdf:Seq>
       <rdf:li>0, 0</rdf:li>
       <rdf:li>255, 255</rdf:li>
      </rdf:Seq>
     </crs:ToneCurvePV2012Blue>
     </rdf:Description>
    </crs:Parameters>
    </rdf:Description>
   </crs:Look>
   <crs:Preset>
    <rdf:Description
     crs:Name="360"
     crs:Amount="1.000000"
     crs:UUID="440EA953FAD30241B4C1936E72802CAB"
     crs:SupportsAmount="false"
     crs:LookAmount="1.000000">
    <crs:Parameters>
     <rdf:Description
      crs:Version="13.0.2"
      crs:ProcessVersion="11.0"
      crs:WhiteBalance="As Shot"
      crs:Exposure2012="+1.00"
      crs:Contrast2012="+23"
      crs:Highlights2012="-21"
      crs:Shadows2012="0"
      crs:Whites2012="0"
      crs:Blacks2012="0"
      crs:Texture="0"
      crs:Clarity2012="0"
      crs:Dehaze="-26"
      crs:Vibrance="0"
      crs:Saturation="0"
      crs:ParametricShadows="+10"
      crs:ParametricDarks="0"
      crs:ParametricLights="-76"
      crs:ParametricHighlights="-13"
      crs:ParametricShadowSplit="25"
      crs:ParametricMidtoneSplit="50"
      crs:ParametricHighlightSplit="75"
      crs:Sharpness="40"
      crs:SharpenRadius="+1.0"
      crs:SharpenDetail="25"
      crs:SharpenEdgeMasking="0"
      crs:LuminanceSmoothing="0"
      crs:ColorNoiseReduction="25"
      crs:ColorNoiseReductionDetail="50"
      crs:ColorNoiseReductionSmoothness="50"
      crs:HueAdjustmentRed="0"
      crs:HueAdjustmentOrange="0"
      crs:HueAdjustmentYellow="0"
      crs:HueAdjustmentGreen="0"
      crs:HueAdjustmentAqua="0"
      crs:HueAdjustmentBlue="0"
      crs:HueAdjustmentPurple="0"
      crs:HueAdjustmentMagenta="0"
      crs:SaturationAdjustmentRed="0"
      crs:SaturationAdjustmentOrange="0"
      crs:SaturationAdjustmentYellow="0"
      crs:SaturationAdjustmentGreen="0"
      crs:SaturationAdjustmentAqua="0"
      crs:SaturationAdjustmentBlue="0"
      crs:SaturationAdjustmentPurple="0"
      crs:SaturationAdjustmentMagenta="0"
      crs:LuminanceAdjustmentRed="0"
      crs:LuminanceAdjustmentOrange="0"
      crs:LuminanceAdjustmentYellow="0"
      crs:LuminanceAdjustmentGreen="0"
      crs:LuminanceAdjustmentAqua="0"
      crs:LuminanceAdjustmentBlue="0"
      crs:LuminanceAdjustmentPurple="0"
      crs:LuminanceAdjustmentMagenta="0"
      crs:SplitToningShadowHue="0"
      crs:SplitToningShadowSaturation="0"
      crs:SplitToningHighlightHue="0"
      crs:SplitToningHighlightSaturation="0"
      crs:SplitToningBalance="0"
      crs:ColorGradeMidtoneHue="0"
      crs:ColorGradeMidtoneSat="0"
      crs:ColorGradeShadowLum="0"
      crs:ColorGradeMidtoneLum="0"
      crs:ColorGradeHighlightLum="0"
      crs:ColorGradeBlending="50"
      crs:ColorGradeGlobalHue="0"
      crs:ColorGradeGlobalSat="0"
      crs:ColorGradeGlobalLum="0"
      crs:AutoLateralCA="0"
      crs:LensProfileEnable="0"
      crs:LensManualDistortionAmount="0"
      crs:VignetteAmount="0"
      crs:DefringePurpleAmount="0"
      crs:DefringePurpleHueLo="30"
      crs:DefringePurpleHueHi="70"
      crs:DefringeGreenAmount="0"
      crs:DefringeGreenHueLo="40"
      crs:DefringeGreenHueHi="60"
      crs:GrainAmount="0"
      crs:PostCropVignetteAmount="0"
      crs:ShadowTint="0"
      crs:RedHue="0"
      crs:RedSaturation="0"
      crs:GreenHue="0"
      crs:GreenSaturation="0"
      crs:BlueHue="0"
      crs:BlueSaturation="0"
      crs:OverrideLookVignette="False"
      crs:ToneCurveName2012="Linear">
     <crs:ToneCurvePV2012>
      <rdf:Seq>
       <rdf:li>0, 0</rdf:li>
       <rdf:li>255, 255</rdf:li>
      </rdf:Seq>
     </crs:ToneCurvePV2012>
     <crs:ToneCurvePV2012Red>
      <rdf:Seq>
       <rdf:li>0, 0</rdf:li>
       <rdf:li>255, 255</rdf:li>
      </rdf:Seq>
     </crs:ToneCurvePV2012Red>
     <crs:ToneCurvePV2012Green>
      <rdf:Seq>
       <rdf:li>0, 0</rdf:li>
       <rdf:li>255, 255</rdf:li>
      </rdf:Seq>
     </crs:ToneCurvePV2012Green>
     <crs:ToneCurvePV2012Blue>
      <rdf:Seq>
       <rdf:li>0, 0</rdf:li>
       <rdf:li>255, 255</rdf:li>
      </rdf:Seq>
     </crs:ToneCurvePV2012Blue>
     </rdf:Description>
    </crs:Parameters>
    </rdf:Description>
   </crs:Preset>
  </rdf:Description>
 </rdf:RDF>
</x:xmpmeta>
